!!!COM:	Josquin des Pres?
**kern	**kern
*part2	*part1
*staff2	*staff1
*clefF4	*clefGv2
*k[b-]	*k[b-]
*M2/1	*M2/1
=1-	=1-
0r	0D
=2	=2
1r	1D
1GG	[1G
=3	=3
1GG	2G]
.	2G
[1C	1G
=4	=4
2C]	1G
2C	.
[1C	2A
.	[2G
=5	=5
1C]	4G]
.	4F
.	4E
.	4D
1C	1E
=6	=6
0D	1D
.	1r
=7	=7
1C	0r
1BB-	.
=8	=8
0AA	0A
=9	=9
0GG	1.B-
.	2G
=10	=10
0D	1B-
.	1A
=11	=11
0E-X	1G
.	1c
=12	=12
0D	2B-
.	1A
.	2F
=13	=13
1C	2G
.	2A
1BB-	1D
=14	=14
2GG	2r
2BB-	1d
1AA	.
.	2c
=15	=15
1GG	2B-
.	2.d
1D	.
.	4c
.	4A
.	4B-
=16	=16
2E	2c
1G	2B-
.	2G
2F	[2A
=17	=17
1D	2A]
.	1D
2BB-	.
2C	2E
=18	=18
2D	2D
2GG	1G
1AA	.
.	2F
=19	=19
1GG	0G
1r	.
=20	=20
1GG	0r
1BB-	.
=21	=21
1C	1E
1D	1F
=22	=22
2r	0G
1BB-	.
[2C	.
=23	=23
2C]	0G
4BB-	.
4AA	.
1GG	.
=24	=24
2r	1G
1GG	.
.	1G
[2C	.
=25	=25
2C]	0G
2BB-	.
2C	.
2E	.
=26	=26
2D	1F
1F	.
.	1G
2E	.
=27	=27
2F	1.A
1D	.
[2G	2G
=28	=28
2G]	1A
2F	.
2G	1B-
[2D	.
=29	=29
2D]	2A
2BB-	1G
2C	.
2D	2F
=30	=30
0GG	0G
==	==
*-	*-
